public/img/psychology/b9-2.svg

<?xml version="1.0" encoding="UTF-8"?> <svg xmlns="http://www.w3.org/2000/svg" width="144" height="144" viewBox="0 0 144 144" fill="none"> <circle opacity="0.2" cx="72" cy="72" r="71.5" stroke="white"></circle> <path d="M61.0535 92.7082L60.1972 85.0136L65.4128 79.2918L57.8301 77.7284L54.0001 71L50.1701 77.7284L42.5874 79.2918L47.803 85.0136L46.9467 92.7082L54.0001 89.516" stroke="white" stroke-linecap="round"></path> <path d="M90.0001 89.516L97.0535 92.7082L96.1972 85.0136L101.413 79.2918L93.8301 77.7284L90.0001 71L86.1701 77.7284L78.5874 79.2918L83.803 85.0136L82.9467 92.7082" stroke="white" stroke-linecap="round"></path> <path d="M72.0001 63.516L79.0535 66.7082L78.1972 59.0136L83.4128 53.2918L75.8301 51.7284L72.0001 45L68.1701 51.7284L60.5874 53.2918L65.803 59.0136L64.9467 66.7082" stroke="white" stroke-linecap="round"></path> </svg>

<svg xmlns="http://www.w3.org/2000/svg" width="144" height="144" fill="none"><circle opacity=".2" cx="72" cy="72" r="71.5" stroke="#fff"/><path d="M61.053 92.708l-.856-7.694 5.216-5.722-7.583-1.564L54 71l-3.83 6.728-7.583 1.564 5.216 5.722-.856 7.694L54 89.516m36 0l7.053 3.192-.856-7.694 5.216-5.722-7.583-1.564L90 71l-3.83 6.728-7.583 1.564 5.216 5.722-.856 7.694M72 63.516l7.053 3.192-.856-7.694 5.216-5.722-7.583-1.564L72 45l-3.83 6.728-7.583 1.564 5.216 5.722-.856 7.694" stroke="#fff" stroke-linecap="round"/></svg>
